X: 994
T:Tuto Tremble dans la nuit
C:Jean Michel Veillon
S:YouTube, Franck Medrano
M:4/4
L:1/8
Z:https://nigelgatherer.com/
K:Em
z | B2 ^cd | B2 B2 | A2 G2 | AG F2 | B2 ^cd | B2 B2 | A2 GA | F3 :|
F | E2 FG | A2 AA | F2 GA | BA Bc | Bc/B/ AG | F2 EF | Bz AG | FA AB | 
E2 FG | A2 AA | F2 GA | BA Ac | Bc/B/ AG | F2 AB | GE FD | E3 :|

